icons/breezeDark/actions/16/document-save-as.svg

<svg viewBox="0 0 16 16" xmlns="http://www.w3.org/2000/svg"><g fill="#c0c0c0"><path d="m2 2v12h1 1 3v-1h-1-1v-3h1 3l1-1h-5-1.03125v4h-.96875v-10h1 1v3 1h6v-1-3h.28125l1.71875 1.71875v.28125 2h1v-2.71875l-2.28125-2.28125h-.03125-.6875-7-1zm4 1h1.90625v3h-1.90625z"/><path d="m13 8 2 2-5 5h-2v-2z"/></g></svg>

<?xml version="1.0" encoding="UTF-8" standalone="no"?>
<svg
   xmlns:dc="http://purl.org/dc/elements/1.1/"
   xmlns:cc="http://creativecommons.org/ns#"
   xmlns:rdf="http://www.w3.org/1999/02/22-rdf-syntax-ns#"
   xmlns:svg="http://www.w3.org/2000/svg"
   xmlns="http://www.w3.org/2000/svg"
   xmlns:sodipodi="http://sodipodi.sourceforge.net/DTD/sodipodi-0.dtd"
   xmlns:inkscape="http://www.inkscape.org/namespaces/inkscape"
   inkscape:version="1.0beta1 (fe3e306, 2019-09-17)"
   sodipodi:docname="document-save-as.svg"
   id="svg142"
   version="1.1"
   viewBox="0 0 16 16">
  <metadata
     id="metadata146">
    <rdf:RDF>
      <cc:Work
         rdf:about="">
        <dc:format>image/svg+xml</dc:format>
        <dc:type
           rdf:resource="http://purl.org/dc/dcmitype/StillImage" />
        <dc:title></dc:title>
      </cc:Work>
    </rdf:RDF>
  </metadata>
  <sodipodi:namedview
     inkscape:current-layer="svg142"
     inkscape:window-maximized="0"
     inkscape:window-y="622"
     inkscape:window-x="1064"
     inkscape:cy="11.261672"
     inkscape:cx="12.217376"
     inkscape:zoom="35.25"
     showgrid="true"
     id="namedview144"
     inkscape:window-height="1088"
     inkscape:window-width="1936"
     inkscape:pageshadow="2"
     inkscape:pageopacity="0"
     guidetolerance="10"
     gridtolerance="10"
     objecttolerance="10"
     borderopacity="1"
     inkscape:document-rotation="0"
     bordercolor="#666666"
     pagecolor="#ffffff">
    <sodipodi:guide
       id="guide148"
       orientation="0,16"
       position="0,16" />
    <sodipodi:guide
       id="guide150"
       orientation="16,0"
       position="16,16" />
    <sodipodi:guide
       id="guide152"
       orientation="0,-16"
       position="16,0" />
    <sodipodi:guide
       id="guide154"
       orientation="-16,0"
       position="0,0" />
    <inkscape:grid
       empspacing="4"
       id="grid156"
       type="xygrid" />
  </sodipodi:namedview>
  <defs
     id="defs3051">
    <style
       id="current-color-scheme"
       type="text/css">
      .ColorScheme-Text {
        color:#c0c0c0;
      }
      </style>
  </defs>
  <path
     d="M 2 2 L 2 14 L 3 14 L 4 14 L 7 14 L 7 13 L 6 13 L 5 13 L 5 10 L 6 10 L 9 10 L 10 9 L 5 9 L 3.96875 9 L 3.96875 13 L 3 13 L 3 3 L 4 3 L 5 3 L 5 6 L 5 7 L 11 7 L 11 6 L 11 3 L 11.28125 3 L 13 4.71875 L 13 5 L 13 7 L 14 7 L 14 4.28125 L 11.71875 2 L 11.6875 2 L 11 2 L 4 2 L 3 2 L 2 2 z M 6 3 L 7.90625 3 L 7.90625 6 L 6 6 L 6 3 z "
     style="fill:#c0c0c0;fill-opacity:1;stroke:none"
     id="path140" />
  <path
     sodipodi:nodetypes="cccccc"
     inkscape:connector-curvature="0"
     id="path162"
     d="m 13,8 2,2 -5,5 H 8 v -2 z"
     style="fill:#c0c0c0;fill-opacity:1;stroke:none;stroke-width:1px;stroke-linecap:butt;stroke-linejoin:miter;stroke-opacity:1" />
</svg>
